www/assets/icons/logo.svg

<?xml version="1.0" encoding="UTF-8"?>
<svg width="71px" height="72px" viewBox="0 0 71 72" version="1.1" xmlns="http://www.w3.org/2000/svg" xmlns:xlink="http://www.w3.org/1999/xlink">
    <!-- Generator: Sketch 55.2 (78181) - https://sketchapp.com -->
    <title>logo</title>
    <desc>Created with Sketch.</desc>
    <defs>
        <linearGradient x1="0%" y1="0%" x2="100%" y2="0%" id="linearGradient-1">
            <stop stop-color="#2D388A" offset="0%"></stop>
            <stop stop-color="#00AEEF" offset="100%"></stop>
        </linearGradient>
        <linearGradient x1="0%" y1="0%" x2="100%" y2="0%" id="linearGradient-2">
            <stop stop-color="#2D388A" offset="0%"></stop>
            <stop stop-color="#00AEEF" offset="100%"></stop>
        </linearGradient>
    </defs>
    <g id="Page-1" stroke="none" stroke-width="1" fill="none" fill-rule="evenodd">
        <g id="logo" fill-rule="nonzero">
            <g id="SvgjsG1008">
                <g id="SvgjsG1009">
                    <g id="Group" transform="translate(0.194727, 0.886526)">
                        <path d="M0.244508781,35.2445089 L8.13267043,43.1877401 L43.1348733,7.94543398 L35.2445088,0.00220278181 L0.244508781,35.2445089 Z M8.13267043,41.6259678 L1.79746995,35.2445089 L35.2445089,1.56397508 L41.5819122,7.94543398 L8.13267043,41.6259678 Z" id="Shape" fill="url(#linearGradient-1)"></path>
                        <path d="M13.800428,48.8951478 L21.6907925,56.8361762 L56.6885898,21.5938701 L48.7982254,13.6506389 L13.800428,48.8951478 Z M21.6907925,55.2744039 L15.3533892,48.8951478 L48.7982254,15.2124112 L55.1356286,21.5938701 L21.6907925,55.2744039 Z" id="Shape" fill="url(#linearGradient-2)"></path>
                        <path d="M70.244509,35.2445089 L62.3563474,27.3034805 L27.3541445,62.5457866 L35.2445089,70.4890178 L70.244509,35.2445089 Z M62.3563474,28.86305 L68.6915479,35.2445089 L35.2445089,68.9272455 L28.9071057,62.5457866 L62.3563474,28.86305 Z" id="Shape" fill="url(#linearGradient-1)"></path>
                    </g>
                </g>
            </g>
        </g>
    </g>
</svg>

<svg width="94" height="138" xmlns="http://www.w3.org/2000/svg"><defs><linearGradient x1="0%" y1="0%" x2="100%" y2="0%" id="a"><stop stop-color="#2D388A" offset="0%"/><stop stop-color="#00AEEF" offset="100%"/></linearGradient><linearGradient x1="0%" y1="0%" x2="100%" y2="0%" id="b"><stop stop-color="#2D388A" offset="0%"/><stop stop-color="#00AEEF" offset="100%"/></linearGradient></defs><g fill-rule="nonzero" fill="none"><path d="M.245 35.245l7.888 7.943L43.135 7.945 35.245.002l-35 35.243zm7.888 6.381l-6.336-6.381L35.245 1.564l6.337 6.381-33.45 33.681z" fill="url(#a)" transform="translate(12.195 .887)"/><path d="M13.8 48.895l7.89 7.941L56.69 21.594l-7.89-7.943L13.8 48.895zm7.89 6.38l-6.337-6.38 33.445-33.683 6.338 6.382-33.445 33.68z" fill="url(#b)" transform="translate(12.195 .887)"/><path d="M70.245 35.245l-7.889-7.942-35.002 35.243 7.89 7.943 35-35.244zm-7.889-6.382l6.336 6.382-33.447 33.682-6.338-6.381 33.45-33.683z" fill="url(#a)" transform="translate(12.195 .887)"/><g fill="#000"><path d="M20.348 87.939v23.382c0 8.963-4.679 12.267-10.694 12.267-4.061 0-7.454-1.852-9.15-4.756l2.056-2.103c1.49 2.403 3.907 3.855 7.043 3.855 4.473 0 7.557-2.253 7.557-9.513V87.939h3.188zM38.7 96.5c4.73 0 8.637 2.353 10.385 6.008v-5.558h3.136v26.036h-3.136v-5.557c-1.748 3.705-5.655 6.058-10.385 6.058-6.015 0-13.47-4.506-13.47-13.469 0-8.962 7.455-13.518 13.47-13.518zm.257 2.754c-4.781 0-10.642 3.504-10.642 10.764 0 7.21 5.86 10.715 10.642 10.715 4.987 0 10.282-3.404 10.282-10.715 0-7.36-5.295-10.764-10.282-10.764zm22.466-11.667v2.854h-3.136v-2.854h3.136zm0 9.363v26.036h-3.136V96.951h3.136zm9.202-9.363v35.4H67.49v-35.4h3.136zm19.125 15.171c-1.08-2.203-2.982-3.705-5.758-3.705-2.982 0-4.936 1.753-4.936 4.056 0 2.003 1.08 3.555 4.216 4.606l2.468.851c4.626 1.603 7.762 3.305 7.762 7.661 0 4.857-4.832 7.26-9.15 7.26-4.524 0-8.483-2.503-9.408-6.81l2.57-.7c.874 3.204 3.65 4.957 6.838 4.957 2.93 0 6.066-1.603 6.066-4.657 0-2.704-1.954-4.055-5.09-5.107l-2.981-1.001c-4.524-1.552-6.324-4.106-6.324-7.01 0-3.905 3.445-6.66 7.917-6.66 4.113 0 7.043 2.154 8.38 5.458l-2.57.801z"/></g><g fill="#000"><path d="M9.002 136.73l-.52-1.192H5.954l-.52 1.191H5l2.06-4.682h.316l2.06 4.682h-.434zm-2.896-1.553H8.33l-1.113-2.555-1.112 2.555zm10.584-3.13v4.682h-.414v-3.752l-1.804 3.752h-.322l-1.797-3.752v3.752h-.415v-4.682h.408l1.968 4.1 1.968-4.1h.408zm2.364 1.144c.776 0 1.737.608 1.737 1.799a1.753 1.753 0 01-1.737 1.806 1.753 1.753 0 01-1.738-1.806c0-1.19.96-1.8 1.738-1.8zm0 .368c-.6 0-1.343.468-1.343 1.431 0 .97.744 1.438 1.343 1.438s1.342-.468 1.342-1.438c0-.963-.743-1.431-1.342-1.431zM24.306 132h.402V136.729h-.402v-.742c-.223.495-.724.809-1.33.809-.77 0-1.724-.602-1.724-1.8a1.75 1.75 0 011.725-1.805c.605 0 1.106.314 1.33.802V132zm-1.296 4.428c.638 0 1.316-.455 1.316-1.431 0-.984-.678-1.438-1.316-1.438-.613 0-1.363.468-1.363 1.438 0 .963.75 1.431 1.363 1.431zm4.054-3.237c.777 0 1.797.608 1.686 1.96h-3.022c.073.862.737 1.284 1.415 1.284.481 0 .83-.14 1.093-.435l.244.22c-.31.395-.764.576-1.343.576-.882 0-1.81-.609-1.81-1.806 0-1.19.96-1.8 1.737-1.8zm0 .36c-.566 0-1.257.422-1.336 1.272h2.666c-.046-.85-.763-1.271-1.33-1.271zm4.016-.354c.052 0 .098 0 .145.007v.388c-.053-.013-.1-.013-.139-.013-.658 0-1.198.481-1.303 1.304v1.846h-.402v-3.478h.402v.93c.112-.509.599-.984 1.297-.984zm2.409 0c.671 0 1.31.435 1.31 1.505v2.027h-.395v-2.027c0-.782-.435-1.137-.987-1.137-.652 0-1.12.602-1.205 1.077v2.087h-.402v-3.478h.402v.863c.066-.261.5-.917 1.277-.917zm6.32-1.15v3.124c0 1.197-.6 1.638-1.37 1.638-.52 0-.954-.247-1.172-.635l.264-.281c.19.321.5.515.901.515.573 0 .968-.301.968-1.27v-3.091h.408zm2.35 1.144c.605 0 1.105.314 1.329.802v-.742h.401v3.478h-.401v-.742c-.224.495-.724.809-1.33.809-.77 0-1.725-.602-1.725-1.8a1.75 1.75 0 011.725-1.805zm.032.368c-.612 0-1.363.468-1.363 1.438 0 .963.75 1.431 1.363 1.431.638 0 1.316-.455 1.316-1.431 0-.984-.678-1.438-1.316-1.438zm5.608-.308l-1.527 3.478h-.31l-1.52-3.478h.408l1.27 2.91 1.271-2.91h.408zm2.12-.06c.605 0 1.106.314 1.33.802v-.742h.401v3.478h-.402v-.742c-.223.495-.724.809-1.33.809-.77 0-1.724-.602-1.724-1.8a1.75 1.75 0 011.725-1.805zm.033.368c-.612 0-1.363.468-1.363 1.438 0 .963.75 1.431 1.363 1.431.638 0 1.316-.455 1.316-1.431 0-.984-.678-1.438-1.316-1.438zm4.147.468c-.139-.295-.382-.495-.738-.495-.381 0-.631.234-.631.542 0 .267.138.474.54.615l.315.114c.593.214.994.441.994 1.023 0 .649-.619.97-1.171.97-.58 0-1.087-.334-1.205-.91l.329-.093c.112.428.467.662.876.662.375 0 .776-.214.776-.622 0-.361-.25-.542-.651-.682l-.382-.134c-.58-.208-.81-.549-.81-.937 0-.521.441-.89 1.014-.89.526 0 .902.288 1.073.73l-.33.107zm2.659-.836c.612 0 1.158.294 1.448.856l-.329.134c-.23-.402-.639-.622-1.119-.622-.612 0-1.356.468-1.356 1.438 0 .963.744 1.431 1.356 1.431.48 0 .889-.22 1.119-.622l.33.134c-.29.562-.837.856-1.449.856-.79 0-1.751-.602-1.751-1.8 0-1.197.961-1.805 1.751-1.805zm3.732.006c.053 0 .099 0 .145.007v.388c-.053-.013-.099-.013-.138-.013-.658 0-1.198.481-1.304 1.304v1.846h-.401v-3.478h.401v.93c.112-.509.6-.984 1.297-.984zM61.622 132v.381h-.401V132h.401zm0 1.25v3.48h-.401v-3.48h.401zm2.508-.06c.77 0 1.725.61 1.725 1.807s-.955 1.799-1.725 1.799c-.605 0-1.106-.314-1.33-.81V138h-.4v-4.75h.4v.743c.224-.488.725-.802 1.33-.802zm-.033 3.238c.613 0 1.363-.468 1.363-1.431 0-.97-.75-1.438-1.363-1.438-.638 0-1.316.454-1.316 1.438 0 .976.678 1.431 1.316 1.431zm3.772-2.83h-.717v2.482c0 .214.092.328.27.328a.909.909 0 00.44-.12v.354c-.144.08-.296.127-.546.127-.29 0-.566-.154-.566-.635v-2.535h-.467v-.348h.467v-.816h.402v.816h.717v.348zm3.008 2.736h2.153v.395h-2.56v-4.682h.407v4.287zM74.083 132v.381h-.401V132h.401zm0 1.25v3.48h-.401v-3.48h.401zm2.508-.06c.77 0 1.725.61 1.725 1.807s-.955 1.799-1.725 1.799c-.606 0-1.106-.314-1.33-.81v.743h-.401V132h.401v1.993c.224-.488.724-.802 1.33-.802zm-.033 3.238c.612 0 1.363-.468 1.363-1.431 0-.97-.75-1.438-1.363-1.438-.638 0-1.316.454-1.316 1.438 0 .976.678 1.431 1.316 1.431zm4.075-3.23c.052 0 .098 0 .144.006v.388c-.052-.013-.098-.013-.138-.013-.658 0-1.198.481-1.303 1.304v1.846h-.402v-3.478h.402v.93c.112-.509.599-.984 1.297-.984zm2.297-.007c.605 0 1.106.314 1.33.802v-.742h.401v3.478h-.401v-.742c-.224.495-.725.809-1.33.809-.77 0-1.725-.602-1.725-1.8a1.75 1.75 0 011.725-1.805zm.033.368c-.612 0-1.363.468-1.363 1.438 0 .963.75 1.431 1.363 1.431.638 0 1.316-.455 1.316-1.431 0-.984-.678-1.438-1.316-1.438zm4.173-.362c.053 0 .099 0 .145.007v.388c-.053-.013-.099-.013-.138-.013-.659 0-1.198.481-1.304 1.304v1.846h-.401v-3.478h.401v.93c.112-.509.6-.984 1.297-.984zm3.456.054H91L88.92 138h-.402l.6-1.371-1.475-3.378h.408l1.27 2.91 1.27-2.91z"/></g></g></svg>
